dist/svgs/crypto-icons/icons/ioc.svg

<?xml version="1.0" encoding="UTF-8" standalone="yes"?>
<svg xmlns="http://www.w3.org/2000/svg" xmlns:xlink="http://www.w3.org/1999/xlink" width="512px" height="512px" viewBox="0 0 384 384" version="1.1">
  <g id="surface1">
    <path style=" stroke:none;fill-rule:nonzero;fill:rgb(0%,0%,0%);fill-opacity:1;" d="M 150.289062 132.527344 L 150.289062 379.066406 C 163.917969 382.074219 177.835938 383.589844 191.792969 383.585938 C 206.042969 383.585938 219.925781 382.015625 233.292969 379.066406 L 233.292969 132.527344 C 233.292969 132.527344 217.257812 122.777344 191.792969 122.777344 C 166.324219 122.777344 150.289062 132.527344 150.289062 132.527344 Z M 0 191.796875 C 0 275.691406 53.875 346.996094 128.910156 373.027344 L 128.910156 299.242188 C 92.050781 277.625 67.285156 237.613281 67.285156 191.796875 C 67.285156 145.972656 92.050781 105.964844 128.910156 84.34375 L 128.910156 10.558594 C 53.871094 36.589844 0 107.894531 0 191.796875 Z M 254.671875 10.558594 L 254.671875 84.34375 C 291.53125 105.964844 316.300781 145.972656 316.300781 191.796875 C 316.300781 237.613281 291.53125 277.621094 254.671875 299.242188 L 254.671875 373.027344 C 329.707031 346.996094 383.582031 275.691406 383.582031 191.796875 C 383.582031 107.894531 329.707031 36.589844 254.671875 10.558594 Z M 150.289062 4.519531 L 150.289062 74.398438 C 163.273438 69.808594 177.234375 67.285156 191.792969 67.285156 C 206.351562 67.285156 220.308594 69.808594 233.292969 74.398438 L 233.292969 4.519531 C 219.664062 1.511719 205.75 -0.00390625 191.792969 0 C 177.539062 0 163.652344 1.570312 150.289062 4.519531 Z M 150.289062 4.519531 "/>
  </g>
</svg>

<svg xmlns="http://www.w3.org/2000/svg" viewBox="0 0 384 384"><path d="M150.29 132.527v246.54a192.346 192.346 0 0041.503 4.519c14.25 0 28.133-1.57 41.5-4.52V132.527s-16.035-9.75-41.5-9.75c-25.469 0-41.504 9.75-41.504 9.75zM0 191.797c0 83.894 53.875 155.2 128.91 181.23v-73.785c-36.86-21.617-61.625-61.629-61.625-107.445 0-45.824 24.766-85.832 61.625-107.453V10.559C53.871 36.589 0 107.895 0 191.797zM254.672 10.559v73.785c36.86 21.62 61.629 61.629 61.629 107.453 0 45.816-24.77 85.824-61.63 107.445v73.785c75.036-26.03 128.911-97.336 128.911-181.23 0-83.902-53.875-155.207-128.91-181.238zm-104.383-6.04V74.4a124.274 124.274 0 0141.504-7.114c14.559 0 28.516 2.524 41.5 7.113V4.52a192.31 192.31 0 00-41.5-4.52c-14.254 0-28.14 1.57-41.504 4.52zm0 0"/></svg>
